X: 2032
T: Minuet.
%R: minuet
B: Henry Playford "Apollo's Banquet", London 1687 (5th Edition)
F: https://archive.org/details/apollosbanquetco01rugg
Z: 2017 John Chambers <jc:trillian.mit.edu>
M: 3/2
L: 1/8
K: Dm	% and F
% - - - - - - - - - -
|:\
d4 e2f3 gf2 | e2fe d^cd4 A2 |\
d4 ef3 gf2 | e2fe d^c d6 ::\
f4 (gf/g/)a3 ba2 |
g2ba gfg2 c2f2 |\
e4 (fe/f/)g2 c2g2 | a2ba gfg2 c2f2 |\
e4 (fe/f/) g6 a2 | b2 g4 f6 |]
% - - - - - - - - - -

%%sep 1 1 500
%%sep 1 1 500

